X:1
T:I’ll Overcome Some Day
T:I’ll Overcome Some Day
T:Charles Albert Tindley
T:Charles Albert Tindley, 1901
T:Public Domain Courtesy of the Cyber Hymnal™
T:Public Domain Courtesy of the Cyber Hymnal™
C:Charles Albert Tindley
Z:Public Domain
Z:Courtesy of the Cyber Hymnal™
%%score ( 1 2 ) 3
L:1/8
Q:1/4=110
M:3/4
K:G
V:1 treble 
V:2 treble 
V:3 bass 
V:1
 [DG]2 | [GB][GB] [GB]2 [FA]2 | [FA]G G2 [DG]2 | [DG]D [DG]2 [GB]2 | [FA]4 [DG]2 | %5
w: 1.~This|world is one great|bat- tle- field With|forc- es all ar-|rayed, If|
w: 2.~Both|seen and un- seen|pow- ers join To|drive my soul a-|stray, But|
w: 3.~A|thou- sand snares are|set for me, And|mount- ains in my|way, If|
w: 4.~I|fail so oft- en|when I try My|Sav- ior to o-|bey; It|
w: 5.~My|mind is not to|do the wrong, But|walk the nar- row|way; I’m|
w: 6.~Though|many a time no|signs ap- pear, Of|an- swer when I|pray; My|
 [GB][GB] [GB]2 [FA]2 | [FA]G G2 [DG]2 | [DG]D [DG]2 [FA]2 | G4 ||"^Refrain" [Gd]2 | %10
w: in my heart I|do not yield I’ll|o- ver- come some|day.|I’ll|
w: with His Word a|sword of mine, I’ll|o- ver- come some|day.|I’ll|
w: Je- sus will my|lead- er be, I’ll|o- ver- come some|day.|I’ll|
w: pains my heart and|then I cry, Lord,|make me strong some|day.|Lord,|
w: pray- ing as I|jou- rney on, To|o- ver- come some|day.|To|
w: Je- sus says I|need not fear, He’ll|make it plain some|day.|I’ll|
 [Ge][Gd] [GB]2 G2 | d4 [Gd]2 | [Ge][Gd] [GB]2 G2 | [FA]4 [DG]2 | [GB][GB] [GB]2 [FA]2 | %15
w: o- ver- come some|day, I’ll|o- ver- come some|day, If|in my heart I|
w: o- ver- come some|day, I’ll|o- ver- come some|day, But|with His Word a|
w: o- ver- come some|day, I’ll|o- ver- come some|day, If|Je- sus will my|
w: make me strong some|day, Lord,|make me strong some|day; It|pains my heart and|
w: o- ver- come some|day, To|o- ver- come some|day; I’m|pray- ing as I|
w: be like Him some|day, I’ll|be like Him some|day; My|Je- sus says I|
 [FA]G G2 [DG]2 | [DG]D [DG]2 [FA]2 | G4 |] %18
w: do not yield, I’ll|o- ver- come some|day.|
w: sword of mine, I’ll|o- ver- come some|day.|
w: lead- er be, I’ll|o- ver- come some|day.|
w: then I cry, Lord,|make me strong some|day.|
w: jou- rney on, To|o- ver- come some|day.|
w: need not fear, He’ll|make it plain some|day.|
V:2
 x2 | x6 | x6 | x6 | x6 | x6 | x G G2 x2 | x D x4 | G4 || x2 | x6 | (GF G2) x2 | x4 G2 | x6 | x6 | %15
 x6 | x6 | G4 |] %18
V:3
 [G,B,]2 | [G,D][G,D] [G,D]2 [D,C]2 | [G,C][G,B,] [G,B,]2 [G,B,]2 | [G,B,][G,B,] [G,B,]2 [G,D]2 | %4
 [D,D]4 [G,B,]2 | [G,D][G,D] [G,D]2 [D,C]2 | [G,C][G,B,] [G,B,]2 [G,B,]2 | %7
 [D,B,][D,B,] [D,B,]2 [D,C]2 | [G,B,]4 || [G,B,]2 | [G,C][G,B,] [G,D]2 [G,B,]2 | %11
 ([F,A,][A,C] [B,D]2) [G,B,]2 | [G,D][G,B,] [G,D]2 [G,B,]2 | [D,D]4 [G,B,]2 | %14
 [G,D][G,D] [G,D]2 [D,C]2 | [G,C][G,B,] [G,B,]2 [G,B,]2 | [D,B,][D,B,] [D,B,]2 [D,C]2 | [G,B,]4 |] %18

